X: 6
T: The Belfast
R: hornpipe
M: 4/4
L: 1/8
K: Dmaj
|:ag|fadf AdAF|DFAd f2ef|gbeg BeAF|GABG E2ag|
fadf AdAF|DFAd f2ef|gfed cABc|d2f2 d2:|
|:(3DEF|GFGA Bcde|fgfe dcdB|A2f2 fef2|G2e2 ede2|
GFGA Bcde|fgfe dcdB|Afed cABc|d2f2 d2:|
|:a>g|(3fgf (3efe (3ded (3cdc | (3BcB (3ABA G2 b>a | (3gag (3fgf (3efe (3ded | (3cdc (3BcB A2 a>g) |
(3fgf (3efe (3ded (3cdc | (3BcB (3ABA (3GAG (3FGF | E>ge>d c>AB>c | d2 f2 d2 :|


Tune 4	Setting 12353

